src/components/Icon/utils/svgsOptimized/warning.svg

<svg width="24" height="24" viewBox="0 0 24 24"  xmlns="http://www.w3.org/2000/svg">
<path d="M18.8049 15.85L13.333 6.73001C12.9028 6.03001 11.9525 5.79001 11.2222 6.20001C10.9921 6.33001 10.8021 6.51001 10.672 6.73001L5.20007 15.85C4.92997 16.29 4.92997 16.83 5.20007 17.27C5.47017 17.73 5.98035 18.01 6.53055 18H17.4644C18.0146 18 18.5248 17.73 18.7949 17.27C19.065 16.83 19.065 16.29 18.7949 15.85H18.8049ZM12.0025 16C11.5924 16 11.2522 15.66 11.2522 15.25C11.2522 14.84 11.5924 14.5 12.0025 14.5C12.4126 14.5 12.7528 14.84 12.7528 15.25C12.7528 15.66 12.4126 16 12.0025 16ZM12.0025 13.5C11.7224 13.5 11.4923 13.29 11.4523 13.01L11.1322 10.66C11.0822 10.31 11.3423 10 11.6824 10H12.3226C12.6627 10 12.9228 10.31 12.8728 10.66L12.5527 13.01C12.5127 13.29 12.2826 13.51 12.0025 13.51V13.5Z" />
</svg>

<?xml version="1.0" encoding="utf-8"?><svg width="24" height="24" xmlns="http://www.w3.org/2000/svg" viewBox="0 0 24 24"><path d="m18.805 15.85-5.472-9.12c-.43-.7-1.38-.94-2.11-.53-.23.13-.42.31-.551.53L5.2 15.85c-.27.44-.27.98 0 1.42.27.46.78.74 1.33.73h10.934c.55 0 1.06-.27 1.33-.73.271-.44.271-.98 0-1.42h.01Zm-6.803.15c-.41 0-.75-.34-.75-.75s.34-.75.75-.75.75.34.75.75-.34.75-.75.75Zm0-2.5a.56.56 0 0 1-.55-.49l-.32-2.35c-.05-.35.21-.66.55-.66h.64c.34 0 .6.31.55.66l-.32 2.35c-.04.28-.27.5-.55.5v-.01Z"/></svg>
